static/assets/images/icons/vault.svg

<svg width="256" height="256" viewBox="0 0 256 256" fill="none" xmlns="http://www.w3.org/2000/svg">
<path fill-rule="evenodd" clip-rule="evenodd" d="M139.733 30.3565L220.824 65.3904C223.807 67.0407 226.297 69.4724 228.031 72.4302C229.765 75.3881 230.679 78.7631 230.678 82.2013V173.794C230.679 177.232 229.765 180.607 228.031 183.565C226.297 186.523 223.807 188.955 220.824 190.605L139.735 225.643C132.461 228.786 124.217 228.786 116.944 225.643L35.8549 190.605C32.8711 188.955 30.3817 186.523 28.6477 183.565C26.9138 180.607 25.9992 177.232 26 173.794V82.2013C25.9992 78.7631 26.9138 75.3881 28.6477 72.4302C30.3817 69.4724 32.8711 67.0407 35.8549 65.3904L116.945 30.3565C124.218 27.2145 132.461 27.2145 139.733 30.3565ZM121.701 121.913V193.521C121.701 197.111 124.605 200.022 128.187 200.022C131.77 200.022 134.674 197.111 134.674 193.521V121.565L200.069 94.1238C203.375 92.7366 204.934 88.9275 203.552 85.6134C202.169 82.2956 198.363 80.7308 195.054 82.1195L127.756 110.359L61.7307 81.7687C58.4372 80.3425 54.6138 81.864 53.1935 85.1659C51.7748 88.4641 53.2908 92.2906 56.5805 93.7151L121.701 121.913Z" fill="black"/>
</svg>

<svg xmlns="http://www.w3.org/2000/svg" fill="none" viewBox="0 0 256 256"><path fill="#000" fill-rule="evenodd" d="m139.733 30.357 81.091 35.033a19.05 19.05 0 0 1 7.207 7.04 19.3 19.3 0 0 1 2.647 9.771v91.593a19.3 19.3 0 0 1-2.647 9.771 19.05 19.05 0 0 1-7.207 7.04l-81.089 35.038a28.72 28.72 0 0 1-22.791 0l-81.09-35.038a19.04 19.04 0 0 1-7.206-7.04A19.3 19.3 0 0 1 26 173.794V82.201c0-3.438.914-6.813 2.648-9.77a19.05 19.05 0 0 1 7.207-7.04l81.09-35.035a28.72 28.72 0 0 1 22.788 0m-18.032 91.556v71.608c0 3.59 2.904 6.501 6.486 6.501 3.583 0 6.487-2.911 6.487-6.501v-71.956l65.395-27.441c3.306-1.387 4.865-5.196 3.483-8.51a6.487 6.487 0 0 0-8.498-3.495l-67.298 28.24-66.025-28.59a6.487 6.487 0 0 0-8.538 3.397c-1.418 3.298.098 7.125 3.388 8.55z" clip-rule="evenodd"/></svg>
